X:1
T:Title
%%score 1 { 2 | 3 }
L:1/8
Q:1/4=107
M:6/8
K:Eb
V:1 treble nm="Grand Piano, Soprano"
V:2 bass nm="Choir Pad, Australia, SMD"
V:3 bass 
V:1
 [EB] [EB]2 [EG] [EG]2 | [DF] E2- E2- E/ z/ | [DF] [EG]2 [FA] [GB]2 | [Ge] [Fd]2- [Fd]2- [Fd]/ z/ | %4
w: By~Robert~Lowry,~1873 * * *||||
 [Dc] [EB]2 [E=A] [Ec]2 | [EB] [EG]2 [DF] E2 | [DF] [EG]2 [EB] [EG]2 | [DF] E2- E2- E/ z/ | %8
w: ||||
 [DF] [DF]2 [DF] [FB]2 | [Fc] [Fd]2- [Fd]2- [Fd]/ z/ | [Ge] [Ec]2 [EG] [EG]2 | %11
w: |||
 [E=A] [DB]2- [DB]2- [DB]/ z/ | [AB] [GB]2 [_G=A] [_Ac]2 | [GB] [EG]2 [DF] E2 | %14
w: |||
 [DF] [EG]2 [EB] [EG]2 | [DF] E2- E3- | E3 z3 |] %17
w: |||
V:2
 G, G,2 B, B,2 | A, G,2- G,2- G,/ z/ | B, B,2 B, B,2 | B, B,2- B,2- B,/ z/ | A, G,2 _G, A,2 | %5
 G, B,2 A, G,2 | B, B,2 B, B,2 | A, G,2- G,2- G,/ z/ | B, B,2 B, B,2 | =A, B,2- B,2- B,/ z/ | %10
 B, B,2 =A, C2 | C B,2- B,2- B,/ z/ | D E2 E E2 | E[K:bass] B,2 A, G,2 | B, B,2 B, B,2 | %15
 A, G,2- G,3- | G,3 z3 |] %17
V:3
 E, E,2 E, B,,2 | B,, E,2- E,2- E,/ z/ | B,, E,2 E, E,2 | E, B,,2- B,,2- B,,/ z/ | B,, E,2 E, E,2 | %5
 E, B,,2 B,, C,2 | C, E,2 G,, B,,2 | B,, E,2- E,2- E,/ z/ | B,, B,,2 B,, D,2 | .F,3 z3 | %10
 E, F,2 F, F,2 | F, B,,2- B,,2- B,,/ z/ | B,, E,2 E, E,2 | E, E,2 B,, C,2 | B,, E,2 G,, B,,2 | %15
 B,, E,2- E,3- | E,3 z3 |] %17

